X: 7415
T:Mazurka
R:Mazurka
M:3/4
A:Auvergne
O:France
K:G
D2GFG2|D2BAB2\
|1 cBAGFG|AGFED2 :|2 cBAGF2|G4||\
|:Bc|d2dedc|B2G2B2\
|1 c2cdcB|A4Bc:|2 cBAGF2|G4:|
